X: 490
%
U:~=!turn!
T: Mrs. Moray of Abercairnie
C:Neil Gow
O:Scotland
B:Keith Norman MacDonald : "The Skye collection of the best reels & strathspeys extant" : 1887
Z:Ralph Palmer
N:Three tunes of this name, or Mrs. Moray of Abercairny, in this collection.
R:Reel
M:C
L:1/8
K:D
D/D/D TF2 A<DF<D | E<=cG<c E<C TE2 | D/D/D TF2 A<DF<D | D<dF<d F<D TF2 :|
d/d/d f>d a>df>d | =c/c/c e>c g<c e2 | d/d/d f>d a<df<d | A<dF<d F<D TF2 |
d/d/d f>d a>df>d | =c/c/c e<c g>c e2 | d>fe>g f<ae<g | f>de>c d<A TF2 |]


